X:1
T:Title
%%score { ( 1 4 ) | ( 2 3 ) }
L:1/8
Q:1/4=100
M:4/4
K:G
V:1 treble nm="Grand Piano"
V:4 treble 
V:2 treble 
V:3 treble 
V:1
 B2 BB B2 BB | [Ec]2 c2 B2 BB | A2 ^G2 A2 B2 | [B,G]4 [B,D]2 [B,G]A | B2 B2 B2 BB | [Ec]2 c2 z4 | %6
w: W.~B.~Bradbury * * * * *||||||
 A2 ^G2 A2 B2 |[M:3/4] A4 [B,G]2 |[M:1/4] B2 |[M:4/4] d6 z2 | d6 z2 | e2 d2 c2 B2 | %12
w: ||||||
 [GB]4 [FA]2 B2 | d6 z2 | d6 z2 | [Ge]2 [Dd]2 .[CEc]2 [DGB]2 | [CFA]4 [B,G]2 z2 |] %17
w: |||||
V:2
 [G,D]2 [G,B,D][G,B,D] [G,DG]2 [G,D][K:bass][G,D] | [C,G,]2 [E,G,E]2 [G,D]2 [G,D][G,D] | %2
 [D,F,C]2 [D,F,B,]2 [D,F,C]2 [D,F,D]2 | z4 z2 G,2[K:treble] | %4
 [G,D]2 [G,B,D]2 [G,DG]2 [G,D][K:bass][G,D] | .[C,G,]2 .[E,G,E]2 [G,D]2 [G,D]2 | %6
 [D,F,C]2 [D,F,B,]2 [D,F,C]2 [D,F,D]2 |[M:3/4] [D,F,C]4 [G,,G,]2 |[M:1/4] [G,D]2 | %9
[M:4/4] [D,A,]2 [D,C]2 [G,B,]2 [G,B,G]2 | [D,A,]2 [D,C]2 [G,B,]2[K:treble] [G,B,G]2 | %11
 [CG]2 [B,DG]2 [A,DF]2 [G,DG]2 | [D,D]4 [D,D]2 [G,G]2 | [D,A,]2 [D,C]2 [G,B,]2 [G,DG]2 | %14
 [D,C]2 [D,A,]2 [G,B,]2 [B,,G,]2 | [C,G,]2 [B,,G,]2 z F G,,2 | D,4 G,,2 z2 |] %17
V:3
 x7[K:bass] x | x8 | x8 | [G,,G,]4 [G,,G,]2 z[K:treble] C | x7[K:bass] x | x8 | x8 |[M:3/4] x6 | %8
[M:1/4] x2 |[M:4/4] x8 | x6[K:treble] x2 | x8 | x8 | x8 | x8 | z4 A,,2 z2 | x8 |] %17
V:4
 x8 | x8 | x8 | x8 | x8 | z D, z F, B2 B2 | x8 |[M:3/4] x6 |[M:1/4] x2 |[M:4/4] F2 F2 G2 B2 | %10
 F2 A2 G2 d2 | x8 | x8 | F2 F2 G2 B2 | F2 F2 G2 [Gd]2 | x8 | x8 |] %17

